resources/vendors/ikoruna/logo.svg

<?xml version="1.0" encoding="UTF-8"?>
<svg enable-background="new 0 0 25.486 25" version="1.1" viewBox="0 0 25.486 25" xml:space="preserve" xmlns="http://www.w3.org/2000/svg">
<style type="text/css">
	.st0{fill:#FFB819;}
	.st1{fill:#231F20;}
	.st2{fill:#FFFFFF;}
	.st3{fill:#C11524;}
	.st4{fill-rule:evenodd;clip-rule:evenodd;fill:#006BB1;}
	.st5{fill-rule:evenodd;clip-rule:evenodd;fill:#F37121;}
	.st6{fill:#003887;}
	.st7{fill:#009DDF;}
	.st8{fill:url(#SVGID_1_);}
	.st9{fill:url(#SVGID_2_);}
	.st10{fill:url(#SVGID_3_);}
	.st11{fill:url(#SVGID_4_);}
	.st12{fill:url(#SVGID_5_);}
	.st13{fill:url(#SVGID_6_);}
	.st14{fill:#009BDE;}
	.st15{fill:#022169;}
	.st16{fill:#002F87;}
	.st17{fill:#F5921B;}
	.st18{fill:#0071BB;}
	.st19{fill:#2C9940;}
	.st20{fill:#226DBB;}
	.st21{fill:#D81928;}
	.st22{fill:#FF7404;}
	.st23{fill-rule:evenodd;clip-rule:evenodd;fill:#5269AF;}
	.st24{fill-rule:evenodd;clip-rule:evenodd;fill:#F9913C;}
	.st25{fill:#F14A43;}
	.st26{fill:#F46E40;}
	.st27{fill:#FA983C;}
	.st28{fill-rule:evenodd;clip-rule:evenodd;fill:#1A5EAB;}
	.st29{fill-rule:evenodd;clip-rule:evenodd;fill:#F8883E;}
	.st30{fill:#80726C;}
	.st31{fill:#FCFCFC;}
	.st32{fill:#CF4D16;}
	.st33{fill:#DF6210;}
	.st34{fill:#F14942;}
	.st35{fill-rule:evenodd;clip-rule:evenodd;fill:none;stroke:#FFFFFF;stroke-width:0.0623;}
	.st36{fill:#EB8341;}
	.st37{fill:#35A15B;}
	.st38{fill:#6B787F;}
	.st39{fill:url(#SVGID_7_);}
	.st40{fill:url(#SVGID_8_);}
	.st41{fill:#A40B34;}
	.st42{fill:#7C0023;}
	.st43{fill:url(#SVGID_9_);}
	.st44{fill:#6D8DA6;}
	.st45{fill:#242021;}
	.st46{fill:#231300;}
	.st47{fill:#5EBB57;}
	.st48{fill:#B04A4A;}
	.st49{fill:#E05145;}
	.st50{fill:#CF0A2C;}
	.st51{fill:#002856;}
	.st52{fill:#007078;}
</style>

	<path class="st21" d="m12.742 0c-7.037 0-12.742 5.596-12.742 12.499 0 6.902 5.705 12.501 12.742 12.501 7.039 0 12.744-5.599 12.744-12.501 0-6.903-5.704-12.499-12.744-12.499zm-3.529 18.842-4.267-8e-3 0.931-7.961h4.208l-0.872 7.969zm-3.246-8.677 0.42-4.693h4.239l-0.54 4.693h-4.119zm10.13 2.845 3.825 5.823h-5.539l-3.778-5.107s-0.271-0.252-0.26-1.432c9e-3 -1.179 0.26-1.432 0.26-1.432l5.151-5.39h5.479l-5.099 6.05s-0.371 0.392-0.371 0.772 0.332 0.716 0.332 0.716z"/>

</svg>

<?xml version="1.0" encoding="utf-8"?>
<!-- Generator: Adobe Illustrator 19.2.1, SVG Export Plug-In . SVG Version: 6.00 Build 0)  -->
<svg version="1.1" id="Layer_1" xmlns="http://www.w3.org/2000/svg" xmlns:xlink="http://www.w3.org/1999/xlink" x="0px" y="0px"
	 width="25.486px" height="25px" viewBox="0 0 25.486 25" style="enable-background:new 0 0 25.486 25;" xml:space="preserve">
<style type="text/css">
	.st0{fill:#FFB819;}
	.st1{fill:#231F20;}
	.st2{fill:#FFFFFF;}
	.st3{fill:#C11524;}
	.st4{fill-rule:evenodd;clip-rule:evenodd;fill:#006BB1;}
	.st5{fill-rule:evenodd;clip-rule:evenodd;fill:#F37121;}
	.st6{fill:#003887;}
	.st7{fill:#009DDF;}
	.st8{fill:url(#SVGID_1_);}
	.st9{fill:url(#SVGID_2_);}
	.st10{fill:url(#SVGID_3_);}
	.st11{fill:url(#SVGID_4_);}
	.st12{fill:url(#SVGID_5_);}
	.st13{fill:url(#SVGID_6_);}
	.st14{fill:#009BDE;}
	.st15{fill:#022169;}
	.st16{fill:#002F87;}
	.st17{fill:#F5921B;}
	.st18{fill:#0071BB;}
	.st19{fill:#2C9940;}
	.st20{fill:#226DBB;}
	.st21{fill:#D81928;}
	.st22{fill:#FF7404;}
	.st23{fill-rule:evenodd;clip-rule:evenodd;fill:#5269AF;}
	.st24{fill-rule:evenodd;clip-rule:evenodd;fill:#F9913C;}
	.st25{fill:#F14A43;}
	.st26{fill:#F46E40;}
	.st27{fill:#FA983C;}
	.st28{fill-rule:evenodd;clip-rule:evenodd;fill:#1A5EAB;}
	.st29{fill-rule:evenodd;clip-rule:evenodd;fill:#F8883E;}
	.st30{fill:#80726C;}
	.st31{fill:#FCFCFC;}
	.st32{fill:#CF4D16;}
	.st33{fill:#DF6210;}
	.st34{fill:#F14942;}
	.st35{fill-rule:evenodd;clip-rule:evenodd;fill:none;stroke:#FFFFFF;stroke-width:0.0623;}
	.st36{fill:#EB8341;}
	.st37{fill:#35A15B;}
	.st38{fill:#6B787F;}
	.st39{fill:url(#SVGID_7_);}
	.st40{fill:url(#SVGID_8_);}
	.st41{fill:#A40B34;}
	.st42{fill:#7C0023;}
	.st43{fill:url(#SVGID_9_);}
	.st44{fill:#6D8DA6;}
	.st45{fill:#242021;}
	.st46{fill:#231300;}
	.st47{fill:#5EBB57;}
	.st48{fill:#B04A4A;}
	.st49{fill:#E05145;}
	.st50{fill:#CF0A2C;}
	.st51{fill:#002856;}
	.st52{fill:#007078;}
</style>
<g>
	<path class="st21" d="M12.742,0C5.705,0,0,5.596,0,12.499C0,19.401,5.705,25,12.742,25c7.039,0,12.744-5.599,12.744-12.501
		C25.486,5.596,19.782,0,12.742,0z M9.213,18.842l-4.267-0.008l0.931-7.961h4.208L9.213,18.842z M5.967,10.165l0.42-4.693h4.239
		l-0.54,4.693H5.967z M16.097,13.01l3.825,5.823h-5.539l-3.778-5.107c0,0-0.271-0.252-0.26-1.432c0.009-1.179,0.26-1.432,0.26-1.432
		l5.151-5.39h5.479l-5.099,6.05c0,0-0.371,0.392-0.371,0.772C15.765,12.674,16.097,13.01,16.097,13.01z"/>
</g>
</svg>
